packages/foundations/assets/icons/functional/images/social/heart_14.svg

<svg width="14" height="14" viewBox="0 0 14 14" fill="none" xmlns="http://www.w3.org/2000/svg">
<g clip-path="url(#clip0_187_416)">
<path fill-rule="evenodd" clip-rule="evenodd" d="M4.50862 2.26849C5.30858 2.26849 6.11989 2.57701 6.72574 3.18279L7.00002 3.45707L7.2057 3.27421C7.87028 2.68358 8.64575 2.29139 9.49143 2.29139C11.1829 2.29139 12.6 3.57001 12.6 5.24002C12.6 6.13141 12.3471 6.97527 11.6857 7.61717L7.80007 11.3886C7.59124 11.5912 7.29713 11.7315 7.00002 11.7315C6.70292 11.7315 6.40881 11.5912 6.19998 11.3886L2.31432 7.61717C1.68799 7.00928 1.40002 6.19995 1.40002 5.39998C1.40002 3.68572 2.79428 2.26849 4.50862 2.26849ZM4.51667 3.66849C3.57822 3.66849 2.80002 4.44557 2.80002 5.38275C2.80002 5.81701 2.97815 6.27927 3.30356 6.59423L7.01145 10.1828L10.7193 6.59423C11.068 6.25674 11.2 5.77136 11.2 5.29133C11.2 4.37586 10.4447 3.69131 9.50623 3.69131C9.02561 3.69131 8.58608 3.89217 8.22449 4.23989L7.60654 4.83418C7.43127 5.0027 7.21741 5.08557 7.01145 5.08557C6.78257 5.08557 6.56548 5.00599 6.39343 4.83418L5.72971 4.17128C5.40928 3.85135 4.97444 3.66849 4.51667 3.66849Z" fill="#1A1C1F"/>
</g>
<defs>
<clipPath id="clip0_187_416">
<rect width="14" height="14" fill="white"/>
</clipPath>
</defs>
</svg>

<svg xmlns="http://www.w3.org/2000/svg" width="14" height="14" fill="none"><g clip-path="url(#a)"><path fill="#1A1C1F" fill-rule="evenodd" d="M4.509 2.268c.8 0 1.61.309 2.217.915L7 3.457l.206-.183c.664-.59 1.44-.983 2.285-.983 1.692 0 3.109 1.279 3.109 2.949 0 .891-.253 1.735-.914 2.377L7.8 11.39a1.18 1.18 0 0 1-.8.343c-.297 0-.591-.14-.8-.343L2.314 7.617C1.688 7.01 1.4 6.2 1.4 5.4c0-1.714 1.394-3.132 3.109-3.132m.008 1.4c-.939 0-1.717.778-1.717 1.715 0 .434.178.896.504 1.211l3.707 3.589 3.708-3.589c.349-.337.481-.823.481-1.303 0-.915-.755-1.6-1.694-1.6-.48 0-.92.201-1.282.549l-.617.594a.856.856 0 0 1-1.213 0l-.664-.663a1.72 1.72 0 0 0-1.213-.503" clip-rule="evenodd"/></g><defs><clipPath id="a"><path fill="#fff" d="M0 0h14v14H0z"/></clipPath></defs></svg>
